img/headerIcon.svg

<svg width="56" height="28" viewBox="0 0 56 28" fill="none" xmlns="http://www.w3.org/2000/svg">
<path d="M53.1162 10.6747V4.36461C53.1162 3.79096 53.0004 3.21732 52.769 2.75841C52.6532 2.18476 52.306 1.72585 51.9588 1.38166C51.6115 1.03748 51.1486 0.69329 50.6856 0.463832C50.1069 0.349104 49.644 0.234375 49.0653 0.234375H47.6764V1.84058H49.0653C50.6856 1.84058 51.4958 2.64368 51.4958 4.36461V10.6747C51.4958 11.0189 51.6115 11.3631 51.7273 11.7072C51.843 12.0514 52.0745 12.3956 52.306 12.7398C52.5375 13.084 52.769 13.3134 53.1162 13.5429C53.4634 13.7724 53.8106 13.8871 54.1578 14.0018C53.8106 14.1165 53.4634 14.2313 53.1162 14.4607C52.769 14.6902 52.5375 14.9196 52.306 15.2638C52.0745 15.608 51.843 15.9522 51.7273 16.2964C51.6115 16.6406 51.4958 16.9848 51.4958 17.3289V23.639C51.4958 25.2452 50.6856 26.1631 49.0653 26.1631H47.6764V27.7693H49.0653C49.644 27.7693 50.2227 27.6545 50.6856 27.4251C51.1486 27.1956 51.6115 26.9662 51.9588 26.5072C52.306 26.1631 52.6532 25.7041 52.769 25.2452C53.0004 24.7863 53.1162 24.2127 53.1162 23.5243V17.2142C53.1162 15.608 54.0421 14.6902 55.7782 14.6902V13.084C54.0421 13.1987 53.1162 12.3956 53.1162 10.6747ZM5.31525 0.578561C4.85229 0.69329 4.38932 1.03748 4.0421 1.38166C3.69488 1.72585 3.4634 2.18476 3.23192 2.64368C3.00043 3.21732 3.00043 3.79096 3.00043 4.36461V10.6747C3.00043 12.2809 2.07451 13.1987 0.222656 13.1987V14.8049C2.07451 14.8049 3.00043 15.608 3.00043 17.3289V23.639C3.00043 24.2127 3.11617 24.7863 3.34766 25.36C3.4634 25.8189 3.69488 26.2778 4.0421 26.622C4.38932 26.9662 4.85229 27.3103 5.31525 27.5398C5.89395 27.6545 6.35692 27.7693 6.93562 27.7693H8.32451V26.0483H6.93562C5.31525 26.0483 4.50506 25.2452 4.50506 23.5243V17.2142C4.50506 16.87 4.38932 16.5258 4.27358 16.1817C4.15784 15.8375 3.92636 15.4933 3.69488 15.1491C3.4634 14.8049 3.23192 14.5755 2.88469 14.346C2.53747 14.1165 2.30599 14.0018 1.84303 13.8871C2.19025 13.7724 2.53747 13.6576 2.88469 13.4282C3.23192 13.1987 3.4634 12.9693 3.69488 12.6251C3.92636 12.2809 4.0421 11.9367 4.15784 11.5925C4.27358 11.2483 4.38932 10.9041 4.38932 10.56V4.36461C4.38932 2.75841 5.19951 1.84058 6.81988 1.84058H8.32451V0.234375H6.93562C6.35692 0.234375 5.89395 0.349104 5.31525 0.578561ZM24.0652 5.39717L17.2365 0.234375L18.1625 10.9041L15.269 14.9196L16.5421 18.8204C17.931 19.3941 19.2041 20.0824 20.3615 21.115C20.4773 19.9677 20.7088 18.2468 20.9402 17.4437L18.7412 17.7879C19.4356 13.3134 21.4032 9.18321 24.0652 5.39717ZM38.7643 0.234375C32.2828 5.16771 30.1995 5.85608 27.769 11.9367L31.1254 11.2483C26.9588 15.608 24.4125 21.3445 23.9495 25.8189L24.7597 27.7693H31.2412C32.2828 25.4747 33.7875 20.8855 39.343 18.8204L40.6162 14.9196L37.7227 10.9041L38.7643 0.234375ZM28.0004 25.5894L25.9171 22.6065H29.968L28.0004 25.5894ZM29.5051 15.8375L34.8291 13.1987C33.6717 15.9522 33.2088 16.4111 29.5051 15.8375ZM26.3801 15.8375L21.056 13.1987C22.3291 15.9522 22.6764 16.4111 26.3801 15.8375Z" fill="#F4F2FF"/>
</svg>

<svg width="56" height="28" viewBox="0 0 56 28" fill="none" xmlns="http://www.w3.org/2000/svg"><path d="M53.116 10.675v-6.31c0-.574-.116-1.148-.347-1.607-.116-.573-.463-1.032-.81-1.376a5.138 5.138 0 00-1.273-.918c-.58-.115-1.042-.23-1.62-.23h-1.39v1.607h1.39c1.62 0 2.43.803 2.43 2.524v6.31c0 .344.115.688.231 1.032.116.344.348.689.579 1.033.232.344.463.573.81.803.347.23.695.344 1.042.459-.347.114-.695.23-1.042.459-.347.23-.578.459-.81.803-.231.344-.463.688-.579 1.032-.115.345-.231.689-.231 1.033v6.31c0 1.606-.81 2.524-2.43 2.524h-1.39v1.606h1.39c.578 0 1.157-.114 1.62-.344.463-.23.925-.459 1.273-.918.347-.344.694-.803.81-1.262.231-.459.347-1.032.347-1.72v-6.31c0-1.607.926-2.525 2.662-2.525v-1.606c-1.736.115-2.662-.688-2.662-2.41zM5.316.579c-.464.114-.927.458-1.274.803-.347.344-.579.803-.81 1.262C3 3.217 3 3.79 3 4.364v6.31C3 12.282 2.075 13.2.223 13.2v1.606c1.852 0 2.777.803 2.777 2.524v6.31c0 .574.116 1.147.348 1.721.115.459.347.918.694 1.262s.81.688 1.273.918c.579.114 1.042.23 1.62.23h1.39v-1.722h-1.39c-1.62 0-2.43-.803-2.43-2.524v-6.31c0-.344-.116-.688-.231-1.032-.116-.344-.348-.689-.58-1.033a2.693 2.693 0 00-.81-.803 2.87 2.87 0 00-1.041-.459c.347-.115.694-.23 1.042-.459.347-.23.578-.459.81-.803.231-.344.347-.688.463-1.033.116-.344.231-.688.231-1.032V4.365c0-1.607.81-2.524 2.43-2.524h1.506V.234h-1.39c-.578 0-1.041.115-1.62.345zm18.75 4.818L17.235.234l.927 10.67-2.894 4.016 1.273 3.9c1.389.574 2.662 1.262 3.82 2.295.115-1.147.347-2.868.578-3.671l-2.199.344c.695-4.475 2.662-8.605 5.324-12.39zM38.763.234C32.283 5.168 30.2 5.856 27.77 11.937l3.356-.689c-4.166 4.36-6.712 10.097-7.175 14.57l.81 1.951h6.481c1.042-2.294 2.547-6.883 8.102-8.949l1.273-3.9-2.893-4.016 1.04-10.67zM28 25.59l-2.083-2.982h4.051L28 25.588zm1.505-9.751l5.324-2.64c-1.157 2.754-1.62 3.213-5.324 2.64zm-3.125 0l-5.324-2.64c1.273 2.754 1.62 3.213 5.324 2.64z" fill="#F4F2FF"/></svg>
